!!!Melodie: eigene
!!!Typ: Lied
**kern	**silbe	**silbe	**silbe	**silbe	**silbe	**silbe	**silbe	**silbe	**silbe	**silbe	**silbe	**silbe	**silbe	**silbe	**silbe	**silbe	**silbe	**silbe
*clefG2	*lang:DE	*lang:DE	*lang:DE	*lang:DE	*lang:DE	*lang:DE	*lang:DE	*lang:DE	*lang:DE	*lang:DE	*lang:DE	*lang:DE	*lang:DE	*lang:DE	*lang:DE	*lang:DE	*lang:DE	*lang:DE
*M4/4	*	*	*	*	*	*	*	*	*	*	*	*	*	*	*	*	*	*
4e	Ich	Ich	Da	und	Ich	die	Ich	und	Wenn	da	O	Für	Nehmt	dass	Du	du	Eins	dass
=	=	=	=	=	=	=	=	=	=	=	=	=	=	=	=	=	=	=
4a	steh’	kom#	ich	hast	lag	Son#	se#	weil	oft	ruft	dass	ed#	weg	mei#	fra#	hast	a#	ich
4b	an	#me,	noch	mich	in	#ne,	#he	ich	mein	mir’s	doch	#le	das	#nes	#gest	dich	#ber	dich
4cc	dei#	bring’	nicht	dir	tief#	die	dich	nun	Herz	zu:	so	Kin#	Stroh,	Hei#	nicht	bei	hoff’	mö#
4a	#ner	und	ge#	zu	#ster	mir	mit	nicht	im	ich	ein	#der	nehmt	#lands	nach	uns	ich	#ge
=	=	=	=	=	=	=	=	=	=	=	=	=	=	=	=	=	=	=
4.g	Krip#	schen#	#bo#	ei#	To#	zu#	Freu#	wei#	Lei#	bin	lie#	gro#	weg	La#	Lust	ein#	wirst	für
8f	#pe	#ke	#ren	#gen	#des#	#ge#	#den	#ter	#be	dein	#ber	#ßer	das	#ger	der	#ge#	du	und
4e	hier,	dir,	war,	gar,	#nacht,	#bracht	an,	kann,	weint	Freund,	Stern	Herr’n	Heu!	sei	Welt,	#stellt	mir,	für
4g	O	was	da	eh	du	Licht,	und	so	und	ein	soll	ge#	Ich	auf	noch	an	mein	in,
=	=	=	=	=	=	=	=	=	=	=	=	=	=	=	=	=	=	=
4.c	Je#	du	bist	ich	wa#	Le#	kann	tu’	kei#	Til#	in	#hö#	will	Krän#	nach	uns#	Hei#	bei
8B	#su#	hast	du	dich	#rest	#ben,	mich	ich,	#nen	#ger	der	#ren	mir	#zen	des	#'rer	#land,	und
4c	#lein,	mir	mir	kannt’,	mei#	Freud’	nicht	was	Trost	dei#	Krip#	güld#	Blu#	und	Lei#	statt	nicht	an
4d	mein	ge#	ge#	er#	#ne	und	satt	ge#	kann	#ner	#pe	#'ne	#men	Vi#	#bes	zu	ver#	mir
=	=	=	=	=	=	=	=	=	=	=	=	=	=	=	=	=	=	=
2e	Le#	#ge#	#bo#	#ko#	Son#	Won#	se#	#sche#	fin#	Sün#	lie#	Wie#	ho#	#o#	Freu#	lei#	#sa#	tra#
4e	#ben!	#ben:	#ren,	#ren;	#ne,	#ne.	#hen,	#hen.	#den,	#den;	#gen!	#gen:	#len,	#len;	#den:	#den;	#gen,	#gen:
=:|	=	=	=	=	=	=	=	=	=	=	=	=	=	=	=	=	=	=
4g	.	Nimm	.	eh	.	O	.	O	.	Was	.	Ach!	.	mit	.	sucht	.	so
=	=	=	=	=	=	=	=	=	=	=	=	=	=	=	=	=	=	=
4cc	.	hin,	.	ich	.	Son#	.	dass	.	trau#	.	Heu	.	Ro#	.	mei#	.	lass
4g	.	es	.	durch	.	#ne,	.	mein	.	#erst	.	und	.	#sen,	.	#ner	.	mich
4a	.	ist	.	dei#	.	die	.	Sinn	.	du	.	Stroh	.	Nel#	.	See#	.	doch
4g	.	mein	.	#ne	.	das	.	ein	.	mein	.	ist	.	#ken,	.	#len	.	dein
=	=	=	=	=	=	=	=	=	=	=	=	=	=	=	=	=	=	=
4.f	.	Geist	.	Hand	.	wer#	.	Ab#	.	Brü#	.	viel	.	Ros#	.	Herr#	.	Kripp#
8g	.	und	.	ge#	.	#te	.	#grund	.	#der#	.	zu	.	#ma#	.	#lich#	.	#lein
4e	.	Sinn,	.	#macht;	.	Licht	.	wär’,	.	#lein?	.	schlecht;	.	#rin	.	#keit	.	sein,
4g	.	Herz,	.	da	.	des	.	und	.	du	.	Samt,	.	aus	.	durch	.	komm,
=	=	=	=	=	=	=	=	=	=	=	=	=	=	=	=	=	=	=
4cc	.	Seel’	.	hast	.	Glau#	.	dass	.	sollst	.	Sei#	.	schö#	.	dein	.	komm
4g	.	und	.	du	.	#bens	.	mein’	.	ja	.	#den,	.	#nen	.	selbst	.	und
4a	.	Mut,	.	schon	.	in	.	Seel’	.	gu#	.	Pur#	.	Gär#	.	eig#	.	le#
4g	.	nimm	.	bei	.	mir	.	ein	.	#ter	.	#pur	.	#ten	.	#'nes	.	#ge
=	=	=	=	=	=	=	=	=	=	=	=	=	=	=	=	=	=	=
4.f	.	al#	.	dir	.	zu#	.	wei#	.	Din#	.	wä#	.	will	.	Her#	.	bei
8g	.	#les	.	ge#	.	#ge#	.	#tes	.	#ge	.	#ren	.	ich	.	#ze#	.	mir
4e	.	hin	.	#dacht,	.	#richt',	.	Meer,	.	sein,	.	recht,	.	ihn	.	#leid,	.	ein,
4e	.	und	.	wie	.	wie	.	dass	.	ich	.	dies	.	von	.	das	.	dich
=	=	=	=	=	=	=	=	=	=	=	=	=	=	=	=	=	=	=
4f#	.	lass	.	du	.	schön	.	ich	.	zah#	.	Kind#	.	o#	.	will	.	und
4g#	.	dir’s	.	mein	.	sind	.	dich	.	#le	.	#lein	.	#ben	.	ich	.	all
8La	.	wohl#	.	woll#	.	dei#	.	möch#	.	dei#	.	drauf#	.	her	.	dir	.	dei#
8Jcc	.	|	.	|	.	|	.	|	.	|	.	|	.	|	.	|	.	|
8Lb	.	#ge#	.	#test	.	#ne	.	#te	.	#ne	.	#zu#	.	be#	.	nicht	.	#ne
8Ja	.	|	.	|	.	|	.	|	.	|	.	|	.	|	.	|	.	|
=	=	=	=	=	=	=	=	=	=	=	=	=	=	=	=	=	=	=
2g#	.	#fal#	.	wer#	.	Strah#	.	fas#	.	Schul#	.	#le#	.	#streu#	.	weh#	.	Freu#
4a	.	#len.	.	#den.	.	#len!	.	#sen!	.	#den.	.	#gen.	.	#en.	.	#ren.	.	#den.
==	==	==	==	==	==	==	==	==	==	==	==	==	==	==	==	==	==	==
*-	*-	*-	*-	*-	*-	*-	*-	*-	*-	*-	*-	*-	*-	*-	*-	*-	*-	*-
